X: 33136
T: Princess Margaret's
R: jig
M: 6/8
K: Fmajor
C|:F2G AGF|E2GB2d|c2A fef|agec2c|
d2B fed|c2fA2c|B2AG2F|1 E2G c2C:|2 B2G cde|f3f2f||
e2f gec|f2ga3|b2ga2f|g2fedc|B2c dcB|A2Bc3|=B2Gg2f|efe dcB|
A2B cAF|B2cd2c|=B2c dBG|c2de2g|fef cBA|d^cd BAG|CEG BGE|F3F2||

